X: 24670
T: Mackilmoyle's
R: reel
M: 4/4
K: Dmajor
DFAd fdfd|cdec dBAG|DFA=c BGBG|FGAF E2 FE|
DFAd fdfd|cdec dBAG|DFA=c BGBd|cdec d2 d2|
cdef gf g2|Ace^g a^ga2|Acef gfge|dfed cB A2|
cdef gf g2|Ace^g a^g a2|Acef gfge|cdec d2 d2|

